src/components/Main/Result/DetailCard/DetailCardRoadmap/img/RER.svg

<?xml version="1.0" encoding="utf-8"?>
<!-- Generator: Adobe Illustrator 13.0.0, SVG Export Plug-In . SVG Version: 6.00 Build 14948)  -->
<!DOCTYPE svg PUBLIC "-//W3C//DTD SVG 1.1//EN" "http://www.w3.org/Graphics/SVG/1.1/DTD/svg11.dtd">
<svg version="1.1" id="Layer_1" xmlns="http://www.w3.org/2000/svg" xmlns:xlink="http://www.w3.org/1999/xlink" x="0px" y="0px"
	 width="400px" height="400px" viewBox="0 0 400 400" enable-background="new 0 0 400 400" xml:space="preserve">
<path fill="#14489E" d="M398.996,200.987C398.996,90.544,306.459,1,200.516,1C90.563,1,1.003,90.544,1.003,200.987
	C1.003,309.923,90.563,399,200.516,399C310.453,399,398.996,310.918,398.996,200.987 M371.635,200.987
	c0,93.532-77.119,170.638-171.119,170.638c-94.535,0-172.152-76.615-172.152-170.638c0-95.003,77.617-173.125,172.152-173.125
	C294.516,27.862,371.635,106.467,371.635,200.987z M342.791,169.148c0-26.862-19.904-39.302-39.318-39.302h-37.297
	c-6.967,0-10.961,5.488-10.961,11.452v116.89c0,6.995,6.98,10.472,13.441,10.472c7.441,0,13.428-3.477,13.428-10.472V212.93h11.438
	l22.414,50.264c1.961,3.967,5.451,5.467,9.447,5.467c7.961,0,19.398-7.457,14.928-16.428l-21.404-44.77
	C331.828,200.987,342.791,189.55,342.791,169.148z M241.787,255.723c0-5.986-3.982-12.433-10.934-12.433H193.03v-34.341h31.363
	c6.951,0,10.918-5.972,10.918-11.438c0-5.956-3.967-11.452-10.918-11.452H193.03v-31.349h34.853c6.951,0,10.934-6.951,10.934-12.425
	c0-5.964-3.982-12.439-10.934-12.439h-50.761c-6.966,0-10.939,5.488-10.939,11.452v116.414c0,6.967,6.966,10.441,13.435,10.441
	h51.237C237.805,268.154,241.787,261.203,241.787,255.723z M150.244,169.148c0-26.862-19.896-39.302-39.288-39.302H73.645
	c-6.966,0-10.932,5.488-10.932,11.452v116.89c0,6.995,6.951,10.472,13.413,10.472c7.486,0,13.427-3.477,13.427-10.472V212.93h11.459
	l22.384,50.264c1.998,3.967,5.481,5.467,9.447,5.467c7.954,0,19.406-7.457,14.92-16.428l-21.381-44.77
	C139.327,200.987,150.244,189.55,150.244,169.148z M314.939,172.142c0,16.918-15.432,20.885-24.879,20.885h-7.977v-40.291h9.461
	C303.992,152.735,314.939,158.209,314.939,172.142z M122.409,172.142c0,16.918-15.44,20.885-24.88,20.885h-7.976v-40.291h9.461
	C111.461,152.735,122.409,158.209,122.409,172.142z"/>
</svg>

<svg width="400" height="400" viewBox="0 0 400 400" fill="none" xmlns="http://www.w3.org/2000/svg">
<path d="M398.996 200.987C398.996 90.544 306.459 1 200.516 1C90.563 1 1.00299 90.544 1.00299 200.987C1.00299 309.923 90.563 399 200.516 399C310.453 399 398.996 310.918 398.996 200.987ZM371.635 200.987C371.635 294.519 294.516 371.625 200.516 371.625C105.981 371.625 28.364 295.01 28.364 200.987C28.364 105.984 105.981 27.862 200.516 27.862C294.516 27.862 371.635 106.467 371.635 200.987ZM342.791 169.148C342.791 142.286 322.887 129.846 303.473 129.846H266.176C259.209 129.846 255.215 135.334 255.215 141.298V258.188C255.215 265.183 262.195 268.66 268.656 268.66C276.097 268.66 282.084 265.183 282.084 258.188V212.93H293.522L315.936 263.194C317.897 267.161 321.387 268.661 325.383 268.661C333.344 268.661 344.781 261.204 340.311 252.233L318.907 207.463C331.828 200.987 342.791 189.55 342.791 169.148ZM241.787 255.723C241.787 249.737 237.805 243.29 230.853 243.29H193.03V208.949H224.393C231.344 208.949 235.311 202.977 235.311 197.511C235.311 191.555 231.344 186.059 224.393 186.059H193.03V154.71H227.883C234.834 154.71 238.817 147.759 238.817 142.285C238.817 136.321 234.835 129.846 227.883 129.846H177.122C170.156 129.846 166.183 135.334 166.183 141.298V257.712C166.183 264.679 173.149 268.153 179.618 268.153H230.855C237.805 268.154 241.787 261.203 241.787 255.723ZM150.244 169.148C150.244 142.286 130.348 129.846 110.956 129.846H73.645C66.679 129.846 62.713 135.334 62.713 141.298V258.188C62.713 265.183 69.664 268.66 76.126 268.66C83.612 268.66 89.553 265.183 89.553 258.188V212.93H101.012L123.396 263.194C125.394 267.161 128.877 268.661 132.843 268.661C140.797 268.661 152.249 261.204 147.763 252.233L126.382 207.463C139.327 200.987 150.244 189.55 150.244 169.148ZM314.939 172.142C314.939 189.06 299.507 193.027 290.06 193.027H282.083V152.736H291.544C303.992 152.735 314.939 158.209 314.939 172.142ZM122.409 172.142C122.409 189.06 106.969 193.027 97.529 193.027H89.553V152.736H99.014C111.461 152.735 122.409 158.209 122.409 172.142Z" fill="white"/>
</svg>
